packages/design-assets/icons/16px/Activity.svg

<?xml version="1.0" encoding="UTF-8"?>
<svg width="16px" height="16px" viewBox="0 0 16 16" version="1.1" xmlns="http://www.w3.org/2000/svg" xmlns:xlink="http://www.w3.org/1999/xlink">
    <!-- Generator: Sketch 54.1 (76490) - https://sketchapp.com -->
    <title>Icons/16px/Activity</title>
    <desc>Created with Sketch.</desc>
    <g id="Icons/16px/Activity" stroke="none" stroke-width="1" fill="none" fill-rule="evenodd">
        <path d="M9.84479008,0 L6.04479008,0 C5.64479008,0 5.24479008,0.3 5.04479008,0.7 L3.04479008,7.7 C2.84479008,8.4 3.34479008,9 3.94479008,9 L7.64479008,9 L6.14479008,16 L13.4447901,6.6 C13.9447901,6 13.4447901,5 12.6447901,5 L9.64479008,5 L10.7447901,1.3 C10.9447901,0.6 10.4447901,0 9.84479008,0 Z" id="i-16-activity" fill="#818F99"></path>
    </g>
</svg>

<svg width="16" height="16" xmlns="http://www.w3.org/2000/svg"><path d="M9.845 0h-3.8c-.4 0-.8.3-1 .7l-2 7c-.2.7.3 1.3.9 1.3h3.7l-1.5 7 7.3-9.4c.5-.6 0-1.6-.8-1.6h-3l1.1-3.7c.2-.7-.3-1.3-.9-1.3z" fill="#818F99" fill-rule="evenodd"/></svg>
